src/places/22/folder-new.svg

<svg width="22" height="22" version="1.1" xmlns="http://www.w3.org/2000/svg">
 <defs>
  <style id="current-color-scheme" type="text/css">.ColorScheme-Text { color:#363636; }</style>
 </defs>
 <path class="ColorScheme-Text" d="m5 5c-1.108 0-2 0.892-2 2v9c0 1.108 0.892 2 2 2h7.6777a4.5 4.5 0 0 1-0.91602-1h-6.7617c-0.554 0-1-0.446-1-1v-6h14v0.75977a4.5 4.5 0 0 1 1 0.91406v-3.6738c0-1.108-0.892-2-2-2h-7.6289c-0.57985-0.0229-0.6047 0.076884-1.0391-0.35742-0.43381-0.43381-0.613-0.64213-1.332-0.64258h-2zm0 1h2c0.31116-1.7e-6 0.52033 1.414e-4 0.99805 0.4707 0.47877 0.47161 0.6388 0.5293 1 0.5293h8.002c0.554 0 1 0.446 1 1v1h-14v-2c0-0.554 0.446-1 1-1z" fill="currentColor"/>
 <path class="ColorScheme-Text" d="m15.5 11a3.5 3.5 0 0 0-3.5 3.5 3.5 3.5 0 0 0 3.5 3.5 3.5 3.5 0 0 0 3.5-3.5 3.5 3.5 0 0 0-3.5-3.5zm0 1c0.277 0 0.5 0.223 0.5 0.5v1.5h1.5c0.277 0 0.5 0.223 0.5 0.5s-0.223 0.5-0.5 0.5h-1.5v1.5c0 0.277-0.223 0.5-0.5 0.5s-0.5-0.223-0.5-0.5v-1.5h-1.5c-0.277 0-0.5-0.223-0.5-0.5s0.223-0.5 0.5-0.5h1.5v-1.5c0-0.277 0.223-0.5 0.5-0.5z" fill="currentColor"/>
</svg>

<svg xmlns="http://www.w3.org/2000/svg" width="22" height="22">
    <defs>
        <style id="current-color-scheme" type="text/css">
            .ColorScheme-Text{color:#050505;opacity:.7}
        </style>
    </defs>
    <path fill="currentColor" d="M5 5c-1.108 0-2 .892-2 2v9c0 1.108.892 2 2 2h7.678a4.5 4.5 0 0 1-.916-1H5c-.554 0-1-.446-1-1v-6h14v.76a4.5 4.5 0 0 1 1 .914V8c0-1.108-.892-2-2-2H9.371c-.58-.023-.605.077-1.039-.357C7.898 5.209 7.719 5 7 5H5zm0 1h2c.311 0 .52 0 .998.47.479.472.639.53 1 .53H17c.554 0 1 .446 1 1v1H4V7c0-.554.446-1 1-1z" class="ColorScheme-Text"/>
    <path fill="currentColor" d="M15.5 11a3.5 3.5 0 0 0-3.5 3.5 3.5 3.5 0 0 0 3.5 3.5 3.5 3.5 0 0 0 3.5-3.5 3.5 3.5 0 0 0-3.5-3.5zm0 1c.277 0 .5.223.5.5V14h1.5a.499.499 0 1 1 0 1H16v1.5a.499.499 0 1 1-1 0V15h-1.5a.499.499 0 1 1 0-1H15v-1.5c0-.277.223-.5.5-.5z" class="ColorScheme-Text"/>
</svg>
